dist/img/logo/brand-logo.svg

<svg width="140" height="44" viewBox="0 0 140 44" fill="none" xmlns="http://www.w3.org/2000/svg">
<g clip-path="url(#clip0_8011_98)">
<path d="M120.154 43.7655H112.893C112.886 43.7276 112.879 43.6896 112.871 43.6493C112.971 43.6209 113.071 43.5853 113.171 43.5616C114.802 43.1895 115.365 42.5282 115.384 40.8359C115.41 38.4823 115.398 36.1288 115.398 33.7728C115.398 30.5257 115.422 27.2761 115.374 24.029C115.346 22.1494 114.847 20.3766 113.705 18.8454C111.865 16.3804 108.809 15.7713 105.938 17.2811C103.449 18.5894 101.875 20.7297 100.659 23.1734C99.0157 26.475 98.2891 30.0232 98.0184 33.6614C97.8546 35.887 97.8546 38.1245 97.8427 40.3595C97.8379 40.9995 97.9757 41.6631 98.1728 42.2746C98.5052 43.3033 99.4693 43.4645 100.369 43.7465H93.2692C93.274 43.711 93.2692 43.6588 93.2835 43.6541C95.4824 42.8648 95.7578 42.5093 95.7649 40.1083C95.7792 33.2253 95.7697 26.3423 95.7697 19.4593C95.7697 19.3408 95.7673 19.2199 95.7602 19.1014C95.6391 16.9611 95.2686 16.4942 93.2455 15.84H100.248C100.251 15.8756 100.253 15.9111 100.255 15.9467H95.4562C97.5625 17.3427 97.7073 19.4901 97.7905 21.583C97.8926 24.1357 97.8142 26.6978 97.9021 29.2647C98.2962 28.0014 98.6311 26.7192 99.0917 25.4819C100.367 22.0641 102.238 19.0587 105.394 17.0441C107.486 15.7073 109.763 15.1385 112.226 15.8092C115.042 16.5772 117.056 19.1488 117.357 22.3533C117.464 23.4767 117.485 24.6121 117.511 25.7426C117.538 26.8424 117.516 27.9445 117.611 29.0609C118.005 27.8237 118.343 26.5651 118.803 25.3539C120.088 21.9741 121.952 18.9995 125.094 17.018C127.195 15.6931 129.472 15.1337 131.93 15.8282C134.92 16.672 137.023 19.5185 137.076 23.0264C137.159 28.5679 137.118 34.1117 137.137 39.6532C137.137 40.1889 137.161 40.7269 137.223 41.2578C137.399 42.7179 137.866 43.2203 139.286 43.5427C139.417 43.5711 139.543 43.6114 139.65 43.7702H132.514C132.573 43.7039 132.619 43.609 132.671 43.6043C134.609 43.4337 135.06 42.1869 135.069 40.6368C135.102 35.1831 135.102 29.7316 135.06 24.2779C135.048 22.6922 134.701 21.1492 133.929 19.7295C132.03 16.2453 128.097 15.4324 124.659 17.8405C121.952 19.7366 120.425 22.4694 119.335 25.4867C118.172 28.7054 117.69 32.0568 117.549 35.4604C117.488 36.9773 117.516 38.4989 117.516 40.0182C117.516 42.597 117.687 42.8411 120.15 43.7631L120.154 43.7655Z" fill="black"/>
<path d="M40.8216 43.7678H33.5957C36.0605 42.7534 36.1959 42.5519 36.1911 39.7788C36.1816 34.4151 36.2173 29.0537 36.1223 23.6924C36.0629 20.2841 33.8973 17.4256 30.9932 16.6956C28.2481 16.0059 25.8522 16.8829 23.7293 18.5586C20.4927 21.116 18.8732 24.6594 17.8569 28.5323C16.7955 32.5782 16.7242 36.7141 16.8026 40.8596C16.8335 42.495 17.61 43.545 19.3315 43.7749H12.2244C12.2386 43.7275 12.2457 43.6398 12.2742 43.6327C14.3473 43.0283 14.7058 42.5543 14.7201 40.1533C14.7414 36.4582 14.7272 32.7654 14.7272 29.0703C14.7272 26.0009 14.7319 22.9339 14.7224 19.8645C14.7224 19.2696 14.6916 18.6723 14.6108 18.0822C14.4541 16.9137 13.8296 16.2974 12.6613 16.077C12.5022 16.0462 12.3455 15.994 12.203 15.821H19.2318C19.2318 15.8755 19.2365 15.93 19.2389 15.9846H14.1193C16.5153 17.3379 16.6601 19.4711 16.7456 21.5403C16.8525 24.1569 16.7717 26.7807 16.7717 29.6486C17.2989 28.0748 17.6836 26.7049 18.2083 25.3918C19.6474 21.7868 21.8272 18.7577 25.3036 16.8307C27.6331 15.5413 30.1241 15.0815 32.729 15.7973C36.0605 16.7122 38.2452 19.8005 38.276 23.6853C38.3188 29.1675 38.2855 34.6497 38.2998 40.1319C38.2998 40.6629 38.352 41.2009 38.4446 41.7247C38.6227 42.7463 39.2354 43.3578 40.2826 43.5142C40.4749 43.5426 40.6625 43.5995 40.8525 43.6422C40.843 43.6848 40.8358 43.7275 40.8263 43.7702L40.8216 43.7678Z" fill="black"/>
<path d="M85.0721 35.7658C84.2814 36.6499 83.6118 37.6738 82.7118 38.4252C77.6183 42.6796 68.6993 42.7792 63.423 38.738C59.7946 35.9602 58.4957 31.5422 59.3197 27.5105H59.3553C59.3411 27.3327 59.36 27.1502 59.4123 26.9796H59.4028C59.8872 24.7232 60.9914 22.891 62.6797 21.4381C66.0137 18.5702 69.9769 17.6458 74.2677 17.9587C77.1742 18.1696 79.8813 19.0466 82.2345 20.8219C84.3004 22.3791 85.7014 24.3866 86.3093 26.9796H86.2618C86.3663 27.1384 86.4328 27.3209 86.4636 27.5105H86.8958C86.8175 27.1716 86.7652 26.9132 86.6987 26.6596C84.7017 18.8996 76.26 13.2065 67.7044 16.6148C62.2428 18.7906 58.32 24.5525 58.5788 30.1367C58.9754 38.7167 66.7783 45.1944 74.9421 43.8126C79.7673 42.9949 83.2936 40.3521 85.5827 36.055C85.6682 35.8962 85.5922 35.6497 85.5922 35.4459C85.4188 35.5502 85.2051 35.6213 85.0769 35.7658H85.0721Z" fill="black"/>
<path d="M7.02404 6.62936H1.90917C2.31048 6.8806 2.52657 7.00859 2.73553 7.14606C3.9347 7.93296 4.60908 8.96162 4.60433 10.4738C4.57584 20.1015 4.59009 29.7268 4.59009 39.3544C4.59009 39.6815 4.58771 40.011 4.59009 40.3381C4.61383 42.5234 5.04838 43.0875 7.13565 43.8151H0C0.0546156 43.7084 0.0736124 43.6231 0.104482 43.6184C1.90442 43.3837 2.4957 42.5044 2.50045 40.658C2.52657 30.3169 2.51944 19.9735 2.51469 9.63238C2.51469 7.96614 1.90917 6.73602 0.052241 6.46582H7.05491C7.04304 6.52033 7.03354 6.57485 7.02167 6.62936H7.02404Z" fill="black"/>
<path d="M52.6874 43.7747H45.5375C45.6017 43.7012 45.642 43.6088 45.7014 43.5922C47.5583 43.1087 47.943 42.7224 48.0285 40.7788C48.114 38.8163 48.076 36.8467 48.0784 34.8794C48.0831 29.8736 48.0831 24.8678 48.0784 19.8596C48.0784 19.3548 48.0522 18.8475 48.0024 18.3427C47.8599 16.8922 47.3446 16.3186 45.9009 15.9678C45.7703 15.937 45.642 15.8943 45.3405 15.809C49.1635 15.2046 49.5221 12.2964 50.1348 9.46875C50.1348 10.469 50.1348 11.4692 50.1348 12.4694C50.1348 13.4696 50.1348 14.548 50.1348 15.6976H54.6132C54.6132 15.7592 54.6132 15.8208 54.6132 15.8825H47.423C49.902 17.3022 50.0754 19.542 50.1039 21.7321C50.1775 27.8092 50.1324 33.8887 50.1419 39.9682C50.1419 40.4707 50.1846 40.9779 50.2511 41.478C50.4055 42.6489 51.0323 43.3789 52.2505 43.5306C52.4072 43.5496 52.5616 43.6064 52.7159 43.6444C52.7088 43.687 52.6993 43.7297 52.6922 43.7724L52.6874 43.7747Z" fill="black"/>
<path d="M3.84923 3.21167C2.98251 3.18322 2.24638 2.36077 2.28913 1.46958C2.33187 0.599729 3.07987 -0.0497004 3.98221 0.00244357C4.87031 0.0545875 5.53757 0.784603 5.49008 1.65446C5.44259 2.51483 4.68034 3.23774 3.85161 3.21167H3.84923Z" fill="black"/>
<path d="M88.8667 27.2997C88.8667 27.2997 89.6741 26.5484 82.0113 26.8897C80.0048 26.9774 72.976 27.1386 69.1624 27.1978V27.1954C61.103 27.276 52.9178 27.3092 52.9178 27.4609C52.9178 27.6079 60.6566 27.6387 68.4904 27.6861C72.0309 27.7145 79.8813 27.7193 82.016 27.7761C89.6337 27.9752 88.8667 27.2997 88.8667 27.2997ZM85.5969 27.5296C84.4975 27.5344 83.6046 27.4633 83.6046 27.3685C83.6046 27.276 84.4951 27.1931 85.5945 27.1883C86.694 27.1836 87.5868 27.2547 87.5868 27.3495C87.5868 27.4419 86.6964 27.5249 85.5993 27.5296H85.5969Z" fill="black"/>
</g>
<defs>
<clipPath id="clip0_8011_98">
<rect width="139.652" height="44" fill="white"/>
</clipPath>
</defs>
</svg>

<svg width="140" height="44" viewBox="0 0 140 44" fill="none" xmlns="http://www.w3.org/2000/svg"><g clip-path="url(#clip0_8011_98)" fill="#000"><path d="M120.154 43.766h-7.261l-.022-.117c.1-.028.2-.064.3-.087 1.631-.372 2.194-1.034 2.213-2.726.026-2.354.014-4.707.014-7.063 0-3.247.024-6.497-.024-9.744-.028-1.88-.527-3.652-1.669-5.184-1.84-2.465-4.896-3.074-7.767-1.564-2.489 1.308-4.063 3.449-5.279 5.892-1.643 3.302-2.37 6.85-2.64 10.488-.164 2.226-.164 4.463-.176 6.698-.005.64.133 1.304.33 1.916.332 1.028 1.296 1.19 2.196 1.471h-7.1c.005-.035 0-.087.014-.092 2.2-.79 2.475-1.145 2.482-3.546.014-6.883.005-13.766.005-20.649 0-.118-.003-.24-.01-.358-.12-2.14-.491-2.607-2.514-3.261h7.002l.007.107h-4.799c2.106 1.396 2.251 3.543 2.334 5.636.103 2.553.024 5.115.112 7.682.394-1.264.73-2.546 1.19-3.783 1.275-3.418 3.146-6.423 6.302-8.438 2.092-1.337 4.369-1.905 6.832-1.235 2.816.768 4.83 3.34 5.131 6.544.107 1.124.128 2.26.154 3.39.027 1.1.005 2.202.1 3.318.394-1.237.732-2.496 1.192-3.707 1.285-3.38 3.149-6.354 6.291-8.336 2.101-1.325 4.378-1.884 6.836-1.19 2.99.844 5.093 3.69 5.146 7.198.083 5.542.042 11.086.061 16.627 0 .536.024 1.074.086 1.605.176 1.46.643 1.962 2.063 2.285.131.028.257.068.364.227h-7.136c.059-.066.105-.161.157-.166 1.938-.17 2.389-1.417 2.398-2.967.033-5.454.033-10.905-.009-16.36-.012-1.585-.359-3.128-1.131-4.547-1.899-3.485-5.832-4.298-9.27-1.89-2.707 1.897-4.234 4.63-5.324 7.647-1.163 3.218-1.645 6.57-1.786 9.973-.061 1.517-.033 3.039-.033 4.558 0 2.579.171 2.823 2.634 3.745l.004.003zm-79.332.002h-7.226c2.465-1.015 2.6-1.216 2.595-3.99-.01-5.363.026-10.724-.069-16.086-.06-3.408-2.225-6.266-5.129-6.996-2.745-.69-5.14.187-7.264 1.863-3.236 2.557-4.856 6.1-5.872 9.973-1.061 4.046-1.133 8.182-1.054 12.328.03 1.635.807 2.685 2.528 2.915h-7.107c.015-.047.022-.135.05-.142 2.073-.605 2.432-1.079 2.446-3.48.021-3.695.007-7.388.007-11.083 0-3.07.005-6.136-.005-9.206 0-.594-.03-1.192-.111-1.782-.157-1.168-.781-1.785-1.95-2.005a.715.715 0 01-.458-.256h7.029c0 .055.005.109.007.164h-5.12c2.396 1.353 2.541 3.486 2.627 5.555.107 2.617.026 5.24.026 8.109.527-1.574.912-2.944 1.436-4.257 1.44-3.605 3.62-6.634 7.096-8.561 2.33-1.29 4.82-1.75 7.425-1.034 3.331.915 5.516 4.003 5.547 7.888.043 5.483.01 10.965.024 16.447 0 .53.052 1.069.145 1.593.178 1.021.79 1.633 1.838 1.79.192.028.38.084.57.127l-.027.128-.004-.002zm44.25-8.002c-.79.884-1.46 1.908-2.36 2.66-5.094 4.254-14.013 4.353-19.289.312-3.628-2.778-4.927-7.196-4.103-11.227h.035c-.014-.178.005-.36.057-.531h-.01c.485-2.257 1.59-4.089 3.278-5.542 3.334-2.868 7.297-3.792 11.588-3.48 2.906.212 5.613 1.089 7.966 2.864 2.066 1.557 3.467 3.565 4.075 6.158h-.047c.104.158.17.34.202.53h.432c-.079-.338-.13-.597-.197-.85-1.997-7.76-10.439-13.454-18.995-10.045-5.461 2.176-9.384 7.938-9.125 13.522.396 8.58 8.2 15.057 16.363 13.676 4.825-.818 8.352-3.46 10.64-7.758.086-.159.01-.405.01-.61-.173.105-.387.176-.515.32h-.005zM7.024 6.63H1.909c.401.25.618.379.827.516 1.199.787 1.873 1.816 1.868 3.328-.028 9.628-.014 19.253-.014 28.88 0 .328-.002.657 0 .984.024 2.185.458 2.75 2.546 3.477H0c.055-.107.074-.192.104-.197 1.8-.234 2.392-1.114 2.396-2.96.027-10.341.02-20.684.015-31.026 0-1.666-.606-2.896-2.463-3.166h7.003c-.012.054-.021.109-.033.163h.002zm45.663 37.145h-7.15c.065-.074.105-.166.164-.183 1.857-.483 2.242-.87 2.328-2.813.085-1.963.047-3.932.05-5.9.004-5.005.004-10.011 0-15.02 0-.504-.027-1.012-.077-1.516-.142-1.45-.657-2.024-2.101-2.375-.13-.031-.259-.074-.56-.159 3.822-.604 4.181-3.513 4.794-6.34v6.229h4.478v.184h-7.19c2.479 1.42 2.652 3.66 2.68 5.85.075 6.077.03 12.157.039 18.236 0 .503.043 1.01.11 1.51.154 1.17.78 1.9 1.998 2.053.157.019.312.075.466.113-.007.043-.017.086-.024.128l-.005.003zM3.85 3.212c-.867-.029-1.604-.851-1.56-1.742C2.331.6 3.08-.05 3.981.002 4.87.055 5.538.785 5.49 1.654c-.047.86-.81 1.584-1.638 1.558h-.003z"/><path d="M88.867 27.3s.807-.752-6.856-.41c-2.006.087-9.035.249-12.849.308v-.003c-8.059.081-16.244.114-16.244.266 0 .147 7.739.178 15.572.225 3.54.029 11.391.033 13.526.09 7.618.2 6.85-.476 6.85-.476zm-3.27.23c-1.1.004-1.992-.067-1.992-.162 0-.092.89-.175 1.99-.18 1.099-.004 1.992.067 1.992.162 0 .092-.89.175-1.988.18h-.002z"/></g><defs><clipPath id="clip0_8011_98"><rect width="139.652" height="44" fill="#fff"/></clipPath></defs></svg>
